dist/assets/img/about/poli.svg

<svg width="127" height="86" viewBox="0 0 127 86" fill="none" xmlns="http://www.w3.org/2000/svg">
<g clip-path="url(#clip0)">
<path d="M126.7 68.3H122.4V74.9H126.7V68.3Z" fill="#0095EB"/>
<path d="M126.7 74.9001H122.4V81.5001H126.7V74.9001Z" fill="#0069CC"/>
<path d="M126.7 32.1001H122.4V36.5001H126.7V32.1001Z" fill="#0095EB"/>
<path d="M126.7 36.5H122.4V40.9H126.7V36.5Z" fill="#0069CC"/>
<path d="M126.7 12.2002H122.4V16.9002H126.7V12.2002Z" fill="#0069CC"/>
<path d="M126.7 8.1001H122.4V12.2001H126.7V8.1001Z" fill="#0095EB"/>
<path d="M61.8 0H0V85.2H61.8V0Z" fill="#0069CC"/>
<path d="M123.6 0H61.7998V85.2H123.6V0Z" fill="#0055A6"/>
<path d="M61.8 4H4V81.2H61.8V4Z" fill="#0095EB"/>
<path d="M119.6 4H61.7998V81.2H119.6V4Z" fill="#0095EB"/>
<path d="M105.7 17.3H93.5V77.1H105.7V17.3Z" fill="#57C2FF"/>
<path d="M117.8 17.3H105.6V77.1H117.8V17.3Z" fill="#36B6FF"/>
<path d="M97.7002 74.3C97.7002 73.5 97.1002 72.8 96.2002 72.8C95.4002 72.8 94.7002 73.4 94.7002 74.3C94.7002 75.1 95.3002 75.8 96.2002 75.8C97.0002 75.7 97.7002 75.1 97.7002 74.3Z" fill="#0055A6"/>
<path d="M116.5 74.3C116.5 73.5 115.9 72.8 115 72.8C114.2 72.8 113.5 73.4 113.5 74.3C113.5 75.1 114.1 75.8 115 75.8C115.8 75.7 116.5 75.1 116.5 74.3Z" fill="#0055A6"/>
<path d="M16.3998 20H12.7998V74.5H16.3998V20Z" fill="#0069CC"/>
<path d="M50.7998 20H12.7998V74.5H50.7998V20Z" fill="white"/>
<path d="M88.7998 20H50.7998V74.5H88.7998V20Z" fill="#E8E8E8"/>
<path d="M13.2002 10.8999C13.2002 13.6999 15.4002 15.8999 18.2002 15.8999V5.8999C15.4002 5.8999 13.2002 8.0999 13.2002 10.8999Z" fill="#0055A6"/>
<path d="M18.2002 5.8999V15.8999C21.0002 15.8999 23.2002 13.6999 23.2002 10.8999C23.1002 8.0999 20.9002 5.8999 18.2002 5.8999Z" fill="#0069CC"/>
<path d="M14 10.9C14 13.2 15.9 15.1 18.2 15.1V6.69995C15.9 6.69995 14 8.59995 14 10.9Z" fill="#0069CC"/>
<path d="M18.2002 6.69995V15C20.5002 15 22.4002 13.1 22.4002 10.8C22.3002 8.59995 20.5002 6.69995 18.2002 6.69995Z" fill="#0055A6"/>
<path d="M30.5 10.8999C30.5 13.6999 32.7 15.8999 35.5 15.8999V5.8999C32.7 5.8999 30.5 8.0999 30.5 10.8999Z" fill="#0055A6"/>
<path d="M35.5 5.8999V15.8999C38.3 15.8999 40.5 13.6999 40.5 10.8999C40.5 8.0999 38.2 5.8999 35.5 5.8999Z" fill="#0069CC"/>
<path d="M31.2998 10.9C31.2998 13.2 33.1998 15.1 35.4998 15.1V6.69995C33.1998 6.69995 31.2998 8.59995 31.2998 10.9Z" fill="#0069CC"/>
<path d="M35.5 6.69995V15C37.8 15 39.7 13.1 39.7 10.8C39.6 8.59995 37.8 6.69995 35.5 6.69995Z" fill="#0055A6"/>
<path d="M47.3999 10.8999C47.3999 13.6999 49.5999 15.8999 52.3999 15.8999V5.8999C49.6999 5.8999 47.3999 8.0999 47.3999 10.8999Z" fill="#0055A6"/>
<path d="M52.3999 5.8999V15.8999C55.1999 15.8999 57.3999 13.6999 57.3999 10.8999C57.3999 8.0999 55.1999 5.8999 52.3999 5.8999Z" fill="#0069CC"/>
<path d="M48.1997 10.9C48.1997 13.2 50.0997 15.1 52.3997 15.1V6.69995C50.0997 6.69995 48.1997 8.59995 48.1997 10.9Z" fill="#0069CC"/>
<path d="M52.3999 6.69995V15C54.6999 15 56.5999 13.1 56.5999 10.8C56.5999 8.59995 54.6999 6.69995 52.3999 6.69995Z" fill="#0055A6"/>
<path d="M68.2998 10.9C68.2998 12.4 69.4998 13.6 70.9998 13.6V8.19995C69.3998 8.19995 68.2998 9.39995 68.2998 10.9Z" fill="white"/>
<path d="M70.8999 8.19995V13.5C72.3999 13.5 73.5999 12.3 73.5999 10.8C73.5999 9.39995 72.3999 8.19995 70.8999 8.19995Z" fill="#E8E8E8"/>
<path d="M78.5 10.9C78.5 12.4 79.7 13.6 81.2 13.6V8.19995C79.7 8.19995 78.5 9.39995 78.5 10.9Z" fill="white"/>
<path d="M81.1001 8.19995V13.5C82.6001 13.5 83.8001 12.3 83.8001 10.8C83.8001 9.39995 82.6001 8.19995 81.1001 8.19995Z" fill="#E8E8E8"/>
<path d="M88.6997 10.9C88.6997 12.4 89.8997 13.6 91.3997 13.6V8.19995C89.8997 8.19995 88.6997 9.39995 88.6997 10.9Z" fill="white"/>
<path d="M91.2998 8.19995V13.5C92.7998 13.5 93.9998 12.3 93.9998 10.8C93.9998 9.39995 92.7998 8.19995 91.2998 8.19995Z" fill="#E8E8E8"/>
<path d="M109.1 10.9C109.1 12.4 110.3 13.6 111.8 13.6V8.19995C110.3 8.19995 109.1 9.39995 109.1 10.9Z" fill="white"/>
<path d="M111.7 8.19995V13.5C113.2 13.5 114.4 12.3 114.4 10.8C114.4 9.39995 113.2 8.19995 111.7 8.19995Z" fill="#E8E8E8"/>
<path d="M98.8999 10.9C98.8999 12.4 100.1 13.6 101.6 13.6V8.19995C100.1 8.19995 98.8999 9.39995 98.8999 10.9Z" fill="white"/>
<path d="M101.5 8.19995V13.5C103 13.5 104.2 12.3 104.2 10.8C104.2 9.39995 103 8.19995 101.5 8.19995Z" fill="#E8E8E8"/>
<path d="M99.1001 67.6999C99.1001 71.2999 102 74.3 105.7 74.3V61.2C102 61.2 99.1001 64.0999 99.1001 67.6999Z" fill="#3A9E32"/>
<path d="M105.6 61.2V74.3C109.2 74.3 112.2 71.3999 112.2 67.6999C112.2 63.9999 109.2 61.2 105.6 61.2Z" fill="#43B83A"/>
<path d="M100.1 67.6999C100.1 70.6999 102.6 73.1999 105.6 73.1999V62.2C102.6 62.3 100.1 64.6999 100.1 67.6999Z" fill="#43B83A"/>
<path d="M105.6 62.3V73.3001C108.6 73.3001 111.1 70.8001 111.1 67.8001C111.1 64.7001 108.7 62.3 105.6 62.3Z" fill="#3A9E32"/>
<path d="M35.4002 71.8001C35.2002 71.8001 34.9002 71.6001 34.9002 71.4001L31.5002 50.6001L27.3002 61.2001C27.2002 61.4001 27.0002 61.5001 26.8002 61.5001C26.6002 61.5001 26.4002 61.3001 26.3002 61.1001L25.0002 56.3001L22.2002 66.0001C22.1002 66.2001 21.9002 66.4001 21.7002 66.4001C21.5002 66.4001 21.3002 66.2001 21.2002 66.0001L18.7002 53.8001L16.8002 58.5001C16.7002 58.7001 16.5002 58.8001 16.3002 58.8001H12.7002C12.4002 58.8001 12.2002 58.6001 12.2002 58.3001C12.2002 58.0001 12.4002 57.8001 12.7002 57.8001H16.0002L18.4002 51.8001C18.5002 51.6001 18.7002 51.5001 18.9002 51.5001C19.1002 51.5001 19.3002 51.7001 19.3002 51.9001L21.8002 63.8001L24.6002 54.2001C24.7002 54.0001 24.9002 53.8001 25.1002 53.8001C25.3002 53.8001 25.5002 54.0001 25.6002 54.2001L27.0002 59.3001L31.3002 48.4001C31.4002 48.2001 31.6002 48.1001 31.8002 48.1001C32.0002 48.1001 32.2002 48.3001 32.2002 48.5001L35.4002 68.3001L38.2002 53.2001C38.2002 53.0001 38.4002 52.8001 38.7002 52.8001C38.9002 52.8001 39.1002 52.9001 39.2002 53.2001L41.7002 62.4001L44.5002 54.6001C44.6002 54.4001 44.8002 54.3001 45.0002 54.3001C45.2002 54.3001 45.4002 54.4001 45.5002 54.6001L47.7002 60.5001L49.2002 58.1001C49.3002 58.0001 49.5002 57.9001 49.6002 57.9001H59.6002L61.4002 49.6001C61.5002 49.4001 61.7002 49.2001 61.9002 49.2001C62.1002 49.2001 62.3002 49.4001 62.4002 49.6001L64.5002 61.9001L67.1002 51.5001C67.2002 51.3001 67.4002 51.1001 67.6002 51.1001C67.8002 51.1001 68.0002 51.3001 68.1002 51.5001L69.7002 59.2001L71.6002 54.3001C71.7002 54.1001 71.9002 54.0001 72.1002 54.0001C72.3002 54.0001 72.5002 54.2001 72.6002 54.4001L74.6002 62.1001L76.8002 54.5001C76.9002 54.3001 77.0002 54.1001 77.3002 54.1001C77.5002 54.1001 77.7002 54.2001 77.8002 54.4001L79.8002 59.7001L81.4002 54.8001C81.5002 54.6001 81.7002 54.5001 81.9002 54.5001C82.1002 54.5001 82.3002 54.6001 82.4002 54.9001L84.5002 61.9001L85.4002 58.2001C85.5002 58.0001 85.7002 57.8001 85.9002 57.8001H88.4002C88.7002 57.8001 88.9002 58.0001 88.9002 58.3001C88.9002 58.6001 88.7002 58.8001 88.4002 58.8001H86.3002L85.1002 63.9001C85.0002 64.1001 84.9002 64.3001 84.6002 64.3001C84.4002 64.3001 84.2002 64.2001 84.1002 63.9001L82.0002 56.6001L80.4002 61.4001C80.3002 61.6001 80.1002 61.7001 79.9002 61.7001C79.7002 61.7001 79.5002 61.6001 79.4002 61.4001L77.4002 56.2001L75.3002 64.0001C75.2002 64.2001 75.0002 64.4001 74.8002 64.4001C74.6002 64.4001 74.4002 64.2001 74.3002 64.0001L72.2002 56.0001L70.2002 61.1001C70.1002 61.3001 69.9002 61.4001 69.7002 61.4001C69.5002 61.4001 69.3002 61.2001 69.3002 61.0001L67.8002 53.8001L65.1002 64.4001C65.0002 64.6001 64.9002 64.8001 64.6002 64.8001C64.4002 64.8001 64.2002 64.6001 64.1002 64.4001L62.0002 52.3001L60.6002 58.5001C60.5002 58.7001 60.3002 58.9001 60.1002 58.9001H50.0002L48.1002 61.9001C48.0002 62.1001 47.8002 62.2001 47.6002 62.1001C47.4002 62.1001 47.2002 62.0001 47.2002 61.8001L45.1002 56.2001L42.2002 64.2001C42.1002 64.4001 41.9002 64.5001 41.7002 64.5001C41.5002 64.5001 41.3002 64.3001 41.2002 64.1001L38.8002 55.5001L35.8002 71.3001C35.9002 71.6001 35.7002 71.8001 35.4002 71.8001Z" fill="#F22F2E"/>
<path d="M70.8001 44.7001C70.6001 44.7001 70.4001 44.5001 70.3001 44.3001L66.2001 27.4001L63.0001 39.7001C62.9001 39.9001 62.7001 40.1001 62.5001 40.1001C62.3001 40.1001 62.1001 39.9001 62.0001 39.7001L59.6001 30.8001L56.5001 42.8001C56.4001 43.0001 56.3001 43.2001 56.0001 43.2001C55.8001 43.2001 55.6001 43.0001 55.5001 42.8001L53.3001 30.4001L52.0001 34.7001C51.9001 34.9001 51.7001 35.1001 51.5001 35.1001H41.5001L39.7001 43.4001C39.6001 43.6001 39.5001 43.8001 39.2001 43.8001C39.0001 43.8001 38.8001 43.6001 38.7001 43.4001L36.6001 29.5001L34.0001 39.2001C33.9001 39.4001 33.8001 39.6001 33.5001 39.6001C33.3001 39.6001 33.1001 39.5001 33.0001 39.3001L30.9001 33.8001L29.4001 37.0001C29.3001 37.2001 29.1001 37.3001 28.9001 37.3001C28.7001 37.3001 28.5001 37.2001 28.4001 37.0001L26.4001 30.8001L24.2001 38.5001C24.1001 38.7001 23.9001 38.9001 23.7001 38.9001C23.5001 38.9001 23.3001 38.7001 23.2001 38.5001L21.6001 28.5001L20.0001 43.8001C20.0001 44.0001 19.8001 44.2001 19.5001 44.2001C19.3001 44.2001 19.0001 44.0001 19.0001 43.8001L16.4001 31.5001L15.6001 34.8001C15.5001 35.0001 15.3001 35.2001 15.1001 35.2001H12.6001C12.3001 35.2001 12.1001 35.0001 12.1001 34.7001C12.1001 34.4001 12.3001 34.2001 12.6001 34.2001H14.7001L15.9001 29.1001C16.0001 28.9001 16.2001 28.7001 16.4001 28.7001C16.6001 28.7001 16.8001 28.9001 16.9001 29.1001L19.3001 40.4001L21.0001 24.5001C21.0001 24.3001 21.2001 24.1001 21.5001 24.1001C21.7001 24.1001 22.0001 24.3001 22.0001 24.5001L23.9001 36.0001L26.0001 28.8001C26.1001 28.6001 26.3001 28.4001 26.5001 28.4001C26.7001 28.4001 26.9001 28.5001 27.0001 28.7001L29.1001 35.2001L30.5001 31.9001C30.6001 31.7001 30.8001 31.6001 31.0001 31.6001C31.2001 31.6001 31.4001 31.7001 31.5001 31.9001L33.5001 37.2001L36.3001 26.7001C36.4001 26.5001 36.6001 26.3001 36.8001 26.3001C37.0001 26.3001 37.2001 26.5001 37.3001 26.7001L39.4001 40.3001L40.8001 34.2001C40.9001 34.0001 41.1001 33.8001 41.3001 33.8001H51.4001L53.2001 27.8001C53.3001 27.6001 53.5001 27.4001 53.7001 27.4001C53.9001 27.4001 54.1001 27.6001 54.2001 27.8001L56.4001 40.0001L59.4001 28.4001C59.5001 28.2001 59.7001 28.0001 59.9001 28.0001C60.1001 28.0001 60.3001 28.2001 60.4001 28.4001L62.8001 37.3001L66.1001 24.9001C66.2001 24.7001 66.3001 24.5001 66.6001 24.5001C66.8001 24.5001 67.0001 24.7001 67.1001 24.9001L71.2001 41.9001L74.3001 31.4001C74.4001 31.2001 74.6001 31.0001 74.8001 31.0001C75.0001 31.0001 75.2001 31.2001 75.3001 31.4001L76.3001 35.0001L79.0001 28.4001C79.1001 28.2001 79.3001 28.1001 79.5001 28.1001C79.7001 28.1001 79.9001 28.2001 80.0001 28.4001L83.1001 37.6001L85.0001 33.9001C85.1001 33.7001 85.3001 33.6001 85.4001 33.6001H89.0001C89.3001 33.6001 89.5001 33.8001 89.5001 34.1001C89.5001 34.4001 89.3001 34.6001 89.0001 34.6001H85.7001L83.0001 39.6001C82.9001 39.8001 82.7001 39.9001 82.5001 39.9001C82.3001 39.9001 82.1001 39.8001 82.1001 39.6001L79.1001 30.5001L76.3001 37.2001C76.2001 37.4001 76.0001 37.5001 75.8001 37.5001C75.6001 37.5001 75.4001 37.3001 75.3001 37.1001L74.4001 33.8001L71.3001 44.4001C71.2001 44.6001 71.0001 44.7001 70.8001 44.7001Z" fill="#0069CC"/>
<path d="M21.3002 20V17.3H9.2002V20V77.1H21.3002V74.5H12.8002V20H21.3002Z" fill="#0069CC"/>
<path d="M92.1 20V17.3H80V20H88.5V74.5H80V77.1H92.1V20Z" fill="#0069CC"/>
<path d="M116.4 24.5H94.7002V28.8H116.4V24.5Z" fill="#0069CC"/>
<path d="M116.4 20.2H94.7002V24.5H116.4V20.2Z" fill="#0055A6"/>
<path d="M115.5 24.4998H95.6001V27.8998H115.5V24.4998Z" fill="#0055A6"/>
<path d="M115.5 21.0999H95.6001V24.4999H115.5V21.0999Z" fill="#0069CC"/>
<path d="M116.4 37.1001H94.7002V41.4001H116.4V37.1001Z" fill="#0069CC"/>
<path d="M116.4 32.8H94.7002V37.1H116.4V32.8Z" fill="#0055A6"/>
<path d="M115.5 37.0999H95.6001V40.4999H115.5V37.0999Z" fill="#0055A6"/>
<path d="M115.5 33.7H95.6001V37.0999H115.5V33.7Z" fill="#0069CC"/>
<path d="M104.6 50.7H95.6001V56.5999H104.6V50.7Z" fill="#0069CC"/>
<path d="M104.6 44.8H95.6001V50.7001H104.6V44.8Z" fill="#0055A6"/>
<path d="M104 50.7002H96.2002V55.8002H104V50.7002Z" fill="#0055A6"/>
<path d="M104 45.6001H96.2002V50.7001H104V45.6001Z" fill="#0069CC"/>
<path d="M116.2 50.7H107.2V56.5999H116.2V50.7Z" fill="#0069CC"/>
<path d="M116.2 44.8H107.2V50.7001H116.2V44.8Z" fill="#0055A6"/>
<path d="M115.6 50.7002H107.8V55.8002H115.6V50.7002Z" fill="#0055A6"/>
<path d="M115.6 45.6001H107.8V50.7001H115.6V45.6001Z" fill="#0069CC"/>
<path d="M7.4998 78.9999C7.4998 78.3999 6.9998 77.8999 6.3998 77.8999C5.7998 77.8999 5.2998 78.3999 5.2998 78.9999C5.2998 79.5999 5.7998 80.0999 6.3998 80.0999C6.8998 80.0999 7.4998 79.5999 7.4998 78.9999Z" fill="#0055A6"/>
<path d="M7.4998 6.29995C7.4998 5.69995 6.9998 5.19995 6.3998 5.19995C5.7998 5.19995 5.2998 5.69995 5.2998 6.29995C5.2998 6.89995 5.7998 7.39995 6.3998 7.39995C6.8998 7.39995 7.4998 6.89995 7.4998 6.29995Z" fill="#0055A6"/>
<path d="M118.3 78.9999C118.3 78.3999 117.8 77.8999 117.2 77.8999C116.6 77.8999 116.1 78.3999 116.1 78.9999C116.1 79.5999 116.6 80.0999 117.2 80.0999C117.8 80.0999 118.3 79.5999 118.3 78.9999Z" fill="#0055A6"/>
<path d="M118.3 6.29995C118.3 5.69995 117.8 5.19995 117.2 5.19995C116.6 5.19995 116.1 5.69995 116.1 6.29995C116.1 6.89995 116.6 7.39995 117.2 7.39995C117.8 7.39995 118.3 6.89995 118.3 6.29995Z" fill="#0055A6"/>
</g>
<defs>
<clipPath id="clip0">
<rect width="126.7" height="85.2" fill="white"/>
</clipPath>
</defs>
</svg>

<svg width="127" height="86" fill="none" xmlns="http://www.w3.org/2000/svg"><g clip-path="url(#clip0)"><path d="M126.7 68.3h-4.3v6.6h4.3v-6.6z" fill="#0095EB"/><path d="M126.7 74.9h-4.3v6.6h4.3v-6.6z" fill="#0069CC"/><path d="M126.7 32.1h-4.3v4.4h4.3v-4.4z" fill="#0095EB"/><path d="M126.7 36.5h-4.3v4.4h4.3v-4.4zm0-24.3h-4.3v4.7h4.3v-4.7z" fill="#0069CC"/><path d="M126.7 8.1h-4.3v4.1h4.3V8.1z" fill="#0095EB"/><path d="M61.8 0H0v85.2h61.8V0z" fill="#0069CC"/><path d="M123.6 0H61.8v85.2h61.8V0z" fill="#0055A6"/><path d="M61.8 4H4v77.2h57.8V4zm57.8 0H61.8v77.2h57.8V4z" fill="#0095EB"/><path d="M105.7 17.3H93.5v59.8h12.2V17.3z" fill="#57C2FF"/><path d="M117.8 17.3h-12.2v59.8h12.2V17.3z" fill="#36B6FF"/><path d="M97.7 74.3c0-.8-.6-1.5-1.5-1.5-.8 0-1.5.6-1.5 1.5 0 .8.6 1.5 1.5 1.5.8-.1 1.5-.7 1.5-1.5zm18.8 0c0-.8-.6-1.5-1.5-1.5-.8 0-1.5.6-1.5 1.5 0 .8.6 1.5 1.5 1.5.8-.1 1.5-.7 1.5-1.5z" fill="#0055A6"/><path d="M16.4 20h-3.6v54.5h3.6V20z" fill="#0069CC"/><path d="M50.8 20h-38v54.5h38V20z" fill="#fff"/><path d="M88.8 20h-38v54.5h38V20z" fill="#E8E8E8"/><path d="M13.2 10.9c0 2.8 2.2 5 5 5v-10c-2.8 0-5 2.2-5 5z" fill="#0055A6"/><path d="M18.2 5.9v10c2.8 0 5-2.2 5-5-.1-2.8-2.3-5-5-5zm-4.2 5c0 2.3 1.9 4.2 4.2 4.2V6.7c-2.3 0-4.2 1.9-4.2 4.2z" fill="#0069CC"/><path d="M18.2 6.7V15c2.3 0 4.2-1.9 4.2-4.2-.1-2.2-1.9-4.1-4.2-4.1zm12.3 4.2c0 2.8 2.2 5 5 5v-10c-2.8 0-5 2.2-5 5z" fill="#0055A6"/><path d="M35.5 5.9v10c2.8 0 5-2.2 5-5s-2.3-5-5-5zm-4.2 5c0 2.3 1.9 4.2 4.2 4.2V6.7c-2.3 0-4.2 1.9-4.2 4.2z" fill="#0069CC"/><path d="M35.5 6.7V15c2.3 0 4.2-1.9 4.2-4.2-.1-2.2-1.9-4.1-4.2-4.1zm11.9 4.2c0 2.8 2.2 5 5 5v-10c-2.7 0-5 2.2-5 5z" fill="#0055A6"/><path d="M52.4 5.9v10c2.8 0 5-2.2 5-5s-2.2-5-5-5z" fill="#0069CC"/><path d="M48.2 10.9c0 2.3 1.9 4.2 4.2 4.2V6.7c-2.3 0-4.2 1.9-4.2 4.2z" fill="#0069CC"/><path d="M52.4 6.7V15c2.3 0 4.2-1.9 4.2-4.2 0-2.2-1.9-4.1-4.2-4.1z" fill="#0055A6"/><path d="M68.3 10.9c0 1.5 1.2 2.7 2.7 2.7V8.2c-1.6 0-2.7 1.2-2.7 2.7z" fill="#fff"/><path d="M70.9 8.2v5.3c1.5 0 2.7-1.2 2.7-2.7 0-1.4-1.2-2.6-2.7-2.6z" fill="#E8E8E8"/><path d="M78.5 10.9c0 1.5 1.2 2.7 2.7 2.7V8.2c-1.5 0-2.7 1.2-2.7 2.7z" fill="#fff"/><path d="M81.1 8.2v5.3c1.5 0 2.7-1.2 2.7-2.7 0-1.4-1.2-2.6-2.7-2.6z" fill="#E8E8E8"/><path d="M88.7 10.9c0 1.5 1.2 2.7 2.7 2.7V8.2c-1.5 0-2.7 1.2-2.7 2.7z" fill="#fff"/><path d="M91.3 8.2v5.3c1.5 0 2.7-1.2 2.7-2.7 0-1.4-1.2-2.6-2.7-2.6z" fill="#E8E8E8"/><path d="M109.1 10.9c0 1.5 1.2 2.7 2.7 2.7V8.2c-1.5 0-2.7 1.2-2.7 2.7z" fill="#fff"/><path d="M111.7 8.2v5.3c1.5 0 2.7-1.2 2.7-2.7 0-1.4-1.2-2.6-2.7-2.6z" fill="#E8E8E8"/><path d="M98.9 10.9c0 1.5 1.2 2.7 2.7 2.7V8.2c-1.5 0-2.7 1.2-2.7 2.7z" fill="#fff"/><path d="M101.5 8.2v5.3c1.5 0 2.7-1.2 2.7-2.7 0-1.4-1.2-2.6-2.7-2.6z" fill="#E8E8E8"/><path d="M99.1 67.7c0 3.6 2.9 6.6 6.6 6.6V61.2c-3.7 0-6.6 2.9-6.6 6.5z" fill="#3A9E32"/><path d="M105.6 61.2v13.1c3.6 0 6.6-2.9 6.6-6.6 0-3.7-3-6.5-6.6-6.5zm-5.5 6.5c0 3 2.5 5.5 5.5 5.5v-11c-3 .1-5.5 2.5-5.5 5.5z" fill="#43B83A"/><path d="M105.6 62.3v11c3 0 5.5-2.5 5.5-5.5 0-3.1-2.4-5.5-5.5-5.5z" fill="#3A9E32"/><path d="M35.4 71.8c-.2 0-.5-.2-.5-.4l-3.4-20.8-4.2 10.6c-.1.2-.3.3-.5.3s-.4-.2-.5-.4L25 56.3 22.2 66c-.1.2-.3.4-.5.4s-.4-.2-.5-.4l-2.5-12.2-1.9 4.7c-.1.2-.3.3-.5.3h-3.6c-.3 0-.5-.2-.5-.5s.2-.5.5-.5H16l2.4-6c.1-.2.3-.3.5-.3s.4.2.4.4l2.5 11.9 2.8-9.6c.1-.2.3-.4.5-.4s.4.2.5.4l1.4 5.1 4.3-10.9c.1-.2.3-.3.5-.3s.4.2.4.4l3.2 19.8 2.8-15.1c0-.2.2-.4.5-.4.2 0 .4.1.5.4l2.5 9.2 2.8-7.8c.1-.2.3-.3.5-.3s.4.1.5.3l2.2 5.9 1.5-2.4c.1-.1.3-.2.4-.2h10l1.8-8.3c.1-.2.3-.4.5-.4s.4.2.5.4l2.1 12.3 2.6-10.4c.1-.2.3-.4.5-.4s.4.2.5.4l1.6 7.7 1.9-4.9c.1-.2.3-.3.5-.3s.4.2.5.4l2 7.7 2.2-7.6c.1-.2.2-.4.5-.4.2 0 .4.1.5.3l2 5.3 1.6-4.9c.1-.2.3-.3.5-.3s.4.1.5.4l2.1 7 .9-3.7c.1-.2.3-.4.5-.4h2.5c.3 0 .5.2.5.5s-.2.5-.5.5h-2.1l-1.2 5.1c-.1.2-.2.4-.5.4-.2 0-.4-.1-.5-.4L82 56.6l-1.6 4.8c-.1.2-.3.3-.5.3s-.4-.1-.5-.3l-2-5.2-2.1 7.8c-.1.2-.3.4-.5.4s-.4-.2-.5-.4l-2.1-8-2 5.1c-.1.2-.3.3-.5.3s-.4-.2-.4-.4l-1.5-7.2-2.7 10.6c-.1.2-.2.4-.5.4-.2 0-.4-.2-.5-.4L62 52.3l-1.4 6.2c-.1.2-.3.4-.5.4H50l-1.9 3c-.1.2-.3.3-.5.2-.2 0-.4-.1-.4-.3l-2.1-5.6-2.9 8c-.1.2-.3.3-.5.3s-.4-.2-.5-.4l-2.4-8.6-3 15.8c.1.3-.1.5-.4.5z" fill="#F22F2E"/><path d="M70.8 44.7c-.2 0-.4-.2-.5-.4l-4.1-16.9L63 39.7c-.1.2-.3.4-.5.4s-.4-.2-.5-.4l-2.4-8.9-3.1 12c-.1.2-.2.4-.5.4-.2 0-.4-.2-.5-.4l-2.2-12.4-1.3 4.3c-.1.2-.3.4-.5.4h-10l-1.8 8.3c-.1.2-.2.4-.5.4-.2 0-.4-.2-.5-.4l-2.1-13.9-2.6 9.7c-.1.2-.2.4-.5.4-.2 0-.4-.1-.5-.3l-2.1-5.5-1.5 3.2c-.1.2-.3.3-.5.3s-.4-.1-.5-.3l-2-6.2-2.2 7.7c-.1.2-.3.4-.5.4s-.4-.2-.5-.4l-1.6-10L20 43.8c0 .2-.2.4-.5.4-.2 0-.5-.2-.5-.4l-2.6-12.3-.8 3.3c-.1.2-.3.4-.5.4h-2.5c-.3 0-.5-.2-.5-.5s.2-.5.5-.5h2.1l1.2-5.1c.1-.2.3-.4.5-.4s.4.2.5.4l2.4 11.3L21 24.5c0-.2.2-.4.5-.4.2 0 .5.2.5.4L23.9 36l2.1-7.2c.1-.2.3-.4.5-.4s.4.1.5.3l2.1 6.5 1.4-3.3c.1-.2.3-.3.5-.3s.4.1.5.3l2 5.3 2.8-10.5c.1-.2.3-.4.5-.4s.4.2.5.4l2.1 13.6 1.4-6.1c.1-.2.3-.4.5-.4h10.1l1.8-6c.1-.2.3-.4.5-.4s.4.2.5.4L56.4 40l3-11.6c.1-.2.3-.4.5-.4s.4.2.5.4l2.4 8.9 3.3-12.4c.1-.2.2-.4.5-.4.2 0 .4.2.5.4l4.1 17 3.1-10.5c.1-.2.3-.4.5-.4s.4.2.5.4l1 3.6 2.7-6.6c.1-.2.3-.3.5-.3s.4.1.5.3l3.1 9.2 1.9-3.7c.1-.2.3-.3.4-.3H89c.3 0 .5.2.5.5s-.2.5-.5.5h-3.3l-2.7 5c-.1.2-.3.3-.5.3s-.4-.1-.4-.3l-3-9.1-2.8 6.7c-.1.2-.3.3-.5.3s-.4-.2-.5-.4l-.9-3.3-3.1 10.6c-.1.2-.3.3-.5.3z" fill="#0069CC"/><path d="M21.3 20v-2.7H9.2v59.8h12.1v-2.6h-8.5V20h8.5zm70.8 0v-2.7H80V20h8.5v54.5H80v2.6h12.1V20zm24.3 4.5H94.7v4.3h21.7v-4.3z" fill="#0069CC"/><path d="M116.4 20.2H94.7v4.3h21.7v-4.3zm-.9 4.3H95.6v3.4h19.9v-3.4z" fill="#0055A6"/><path d="M115.5 21.1H95.6v3.4h19.9v-3.4zm.9 16H94.7v4.3h21.7v-4.3z" fill="#0069CC"/><path d="M116.4 32.8H94.7v4.3h21.7v-4.3zm-.9 4.3H95.6v3.4h19.9v-3.4z" fill="#0055A6"/><path d="M115.5 33.7H95.6v3.4h19.9v-3.4zm-10.9 17h-9v5.9h9v-5.9z" fill="#0069CC"/><path d="M104.6 44.8h-9v5.9h9v-5.9zm-.6 5.9h-7.8v5.1h7.8v-5.1z" fill="#0055A6"/><path d="M104 45.6h-7.8v5.1h7.8v-5.1zm12.2 5.1h-9v5.9h9v-5.9z" fill="#0069CC"/><path d="M116.2 44.8h-9v5.9h9v-5.9zm-.6 5.9h-7.8v5.1h7.8v-5.1z" fill="#0055A6"/><path d="M115.6 45.6h-7.8v5.1h7.8v-5.1z" fill="#0069CC"/><path d="M7.5 79c0-.6-.5-1.1-1.1-1.1-.6 0-1.1.5-1.1 1.1 0 .6.5 1.1 1.1 1.1.5 0 1.1-.5 1.1-1.1zm0-72.7c0-.6-.5-1.1-1.1-1.1-.6 0-1.1.5-1.1 1.1 0 .6.5 1.1 1.1 1.1.5 0 1.1-.5 1.1-1.1zM118.3 79c0-.6-.5-1.1-1.1-1.1-.6 0-1.1.5-1.1 1.1 0 .6.5 1.1 1.1 1.1.6 0 1.1-.5 1.1-1.1zm0-72.7c0-.6-.5-1.1-1.1-1.1-.6 0-1.1.5-1.1 1.1 0 .6.5 1.1 1.1 1.1.6 0 1.1-.5 1.1-1.1z" fill="#0055A6"/></g><defs><clipPath id="clip0"><path fill="#fff" d="M0 0h126.7v85.2H0z"/></clipPath></defs></svg>
